X: 1
T: Hinky-Dinky Parlee-Voo
R: jig
Z: 2011 John Chambers <jc:trillian.mit.edu>
B: Ford Collection
M: 6/8
L: 1/8
K: D
"D"DDD D2D | "(Bm)"D2D D3 | "A"C3- C2D | E3- E2A, |\
"A7"EEE E2E | E2E E3 | "D"D3- D2E | F3- F2F |
"D"F2F "(B7)"FAF | "Em"G2G "(A7)"G2E | "D"F2F "(E7)"FFD | "A7"E2C A,3 |\
"A7"A2B A2G | "(E7)"F3 "A7"E3 | "D"D2A "(A7)"BAF | "D"D3- D2z |]
